src/asset/120/clock.svg

<svg width="120" height="120" viewBox="0 0 120 120" fill="none" xmlns="http://www.w3.org/2000/svg">
    <path d="M60.448 89.7952C76.656 89.7952 89.7952 76.656 89.7952 60.448C89.7952 44.24 76.656 31.1008 60.448 31.1008C44.24 31.1008 31.1008 44.24 31.1008 60.448C31.1008 76.656 44.24 89.7952 60.448 89.7952Z" fill="url(#paint0_linear)"/>
    <path d="M60.448 60.448L85.5328 45.184C80.3776 36.7456 71.0752 31.1008 60.448 31.1008V60.448Z" fill="url(#paint1_linear)"/>
    <path d="M60.448 98.896C39.2512 98.896 22 81.6448 22 60.448C22 39.2512 39.2512 22 60.448 22C81.6448 22 98.896 39.2512 98.896 60.448C98.896 81.6448 81.6448 98.896 60.448 98.896ZM60.448 26.608C41.7856 26.608 26.608 41.7856 26.608 60.448C26.608 79.1104 41.7856 94.288 60.448 94.288C79.1104 94.288 94.288 79.1104 94.288 60.448C94.288 41.7856 79.1104 26.608 60.448 26.608Z" fill="url(#paint2_linear)"/>
    <path d="M75.9999 50.8576C75.3087 49.792 73.8975 49.4464 72.8319 50.1376L62.7807 56.4736V35.7664C62.7807 34.4992 61.7439 33.4624 60.4767 33.4624C59.2095 33.4624 58.1727 34.4992 58.1727 35.7664V60.448C58.1727 61.7152 59.2095 62.752 60.4767 62.752C60.8799 62.752 61.2831 62.6368 61.5999 62.464C61.8879 62.4064 62.1471 62.32 62.4063 62.1472L75.2799 54.0544C76.3455 53.3632 76.6623 51.952 75.9999 50.8576Z" fill="white"/>
    <defs>
        <linearGradient id="paint0_linear" x1="89.7952" y1="31.1008" x2="89.7952" y2="89.7952" gradientUnits="userSpaceOnUse">
            <stop stop-color="#4070FF"/>
            <stop offset="1" stop-color="#365FD9"/>
        </linearGradient>
        <linearGradient id="paint1_linear" x1="85.5328" y1="31.1008" x2="85.5328" y2="60.448" gradientUnits="userSpaceOnUse">
            <stop stop-color="#FFA526"/>
            <stop offset="1" stop-color="#FF860D"/>
        </linearGradient>
        <linearGradient id="paint2_linear" x1="98.896" y1="22" x2="98.896" y2="98.896" gradientUnits="userSpaceOnUse">
            <stop stop-color="#FFA526"/>
            <stop offset="1" stop-color="#FF860D"/>
        </linearGradient>
    </defs>
</svg>

<svg width="120" height="120" fill="none" xmlns="http://www.w3.org/2000/svg"><path d="M60.448 89.795c16.208 0 29.347-13.139 29.347-29.347 0-16.208-13.139-29.347-29.347-29.347-16.208 0-29.347 13.139-29.347 29.347 0 16.208 13.139 29.347 29.347 29.347z" fill="url(#paint0_linear)"/><path d="M60.448 60.448l25.085-15.264c-5.155-8.438-14.458-14.083-25.085-14.083v29.347z" fill="url(#paint1_linear)"/><path d="M60.448 98.896C39.251 98.896 22 81.645 22 60.448S39.251 22 60.448 22s38.448 17.251 38.448 38.448-17.251 38.448-38.448 38.448zm0-72.288c-18.662 0-33.84 15.178-33.84 33.84 0 18.662 15.178 33.84 33.84 33.84 18.662 0 33.84-15.178 33.84-33.84 0-18.662-15.178-33.84-33.84-33.84z" fill="url(#paint2_linear)"/><path d="M76 50.858c-.691-1.066-2.103-1.412-3.168-.72L62.78 56.474V35.766a2.31 2.31 0 00-2.304-2.304 2.31 2.31 0 00-2.304 2.304v24.682a2.31 2.31 0 002.304 2.304c.403 0 .806-.115 1.123-.288.288-.058.547-.144.806-.317l12.874-8.093a2.35 2.35 0 00.72-3.196z" fill="#fff"/><defs><linearGradient id="paint0_linear" x1="31.101" y1="31.101" x2="89.795" y2="89.795" gradientUnits="userSpaceOnUse"><stop stop-color="#FFBE41"/><stop offset="1" stop-color="#FF9141"/></linearGradient><linearGradient id="paint1_linear" x1="60.448" y1="31.101" x2="89.438" y2="55.88" gradientUnits="userSpaceOnUse"><stop stop-color="#78A0FF"/><stop offset="1" stop-color="#5078E6"/></linearGradient><linearGradient id="paint2_linear" x1="22" y1="22" x2="98.896" y2="98.896" gradientUnits="userSpaceOnUse"><stop stop-color="#78A0FF"/><stop offset="1" stop-color="#5078E6"/></linearGradient></defs></svg>
